X:1
T:Where the Blood Can Heal!
T:Franklin Lycurgus Eiland, 1905
T:Where the Blood Can Heal!
T:Public Domain
T:Public Domain
T:Public Domain
C:Franklin Lycurgus Eiland, 1905
Z:Public Domain
%%score ( 1 2 ) ( 3 4 )
L:1/8
M:4/4
K:Ab
V:1 treble 
V:2 treble 
V:3 bass 
V:4 bass 
V:1
 [CE]>[CE] | [EA]2 [EA]2 [EA]2 [CE]>[CE] | [EA]2 [EB]2 [EA]2 [EA]>[EB] | %3
w: 1.~Do you|seek re- lief for your|sin- sick soul? You to|
w: 2.~Vain are|all your hopes of a-|no- ther cure, Be per-|
w: 3.~O- ther|prof- fered aids can but|you de- ceive, At your|
w: 4.~Hear you|not? ’tis there a de-|coy- ing voice, Striv- ing|
w: 5.~If you|would a- rise from your|bed of pain, To the|
 [Ac]2 [Ac]>[Ac] ([Ac][EB]) [EA]2 | ([Ac]4 [GB]2) [Ec]>[Ed] | [Ae]2 [Ae]2 ([Ae][Ec]) [EA]>[EB] | %6
w: Christ, then, must make * ap-|peal, * There’s no|o- ther one * who can|
w: suad- ed, you now, * to|feel, * Help a-|lone, thro’ Christ, * that you|
w: will, un- to life, * they|steal! * You must|look to Christ * if you’d|
w: ev- er, to quench * thy|zeal, * Would you|from Him turn, * re- fuge|
w: coun- sel of Christ * then|kneel, * ’Tis pre-|scribed by Him, * and your|
 [Ac]2 [Ac]2 (BA) [CE]>[CE] | [FA]2 [Ac]>[FA] [GB]2 [EB]2 | [EA]6 ||"^Refrain" [CE]>[CE] | %10
w: make you whole, * You must|where the blood can heal!|||
w: can se- cure, * You must|where the blood can heal!|||
w: hope re- ceive, * You must|where the blood can heal!|You|must come|
w: safe to find, * You must|where the blood can heal!|||
w: on- ly hope, * You must|where the blood can heal!|||
 [EA]2 [EA]>[EA] [EB]2 [EB]2 | [EA]6 [EA]>[EB] | [Ac]2 [Ac]>[Ac] ([Ac][EB]) [EA]2 | %13
w: |||
w: |||
w: where the blood can heal,|You must come|where the blood can * heal,|
w: |||
w: |||
 ([Ac]4 [GB]2) [Ec]>[Ed] | [Ae]2 [Ae]2 ([Ae][Ec]) [EA]>[EB] | [Ac]2 [Ac]2 (BA) [CE]>[CE] | %16
w: |||
w: |||
w: There’s * no o-|ther one who * can make|you whole, You * must come|
w: |||
w: |||
 [FA]2 [Ac]>[FA] [GB]2 [EB]2 | [EA]6 |] %18
w: ||
w: ||
w: the blood can heal! *||
w: ||
w: ||
V:2
 x2 | x8 | x8 | x8 | x8 | x8 | x4 E2 x2 | x8 | x6 || x2 | x8 | x8 | x8 | x8 | x8 | x4 E2 x2 | x8 | %17
w: ||||||come|||||||||||
w: ||||||come|||||||||||
w: ||||||come|||||||||where||
w: ||||||come|||||||||||
w: ||||||come|||||||||||
 x6 |] %18
w: |
w: |
w: |
w: |
w: |
V:3
 [A,,A,]>[A,,A,] | [A,,C]2 [A,,C]2 [A,,C]2 [A,,A,]>[A,,A,] | [A,,C]2 [E,D]2 [A,,C]2 [A,C]>[A,D] | %3
 [A,E]2 [A,E]>[A,E] (ED) [A,C]2 | (A,4 E,2) A,>[A,B,] | [A,C]2 [A,C]2 (CA,) [A,C]>[A,D] | %6
 [A,E]2 [A,E]2 (DC) A,>A, | [F,A,]2 [F,A,]>[F,C] [E,D]2 [E,D]2 | [A,,C]6 || [A,,A,]>[A,,A,] | %10
 [A,,C]2 [A,,C]>[A,,C] [E,D]2 [E,D]2 | [A,,C]6 [A,C]>[A,D] | [A,E]2 [A,E]>[A,E] (ED) [A,C]2 | %13
 (A,4 E,2) A,>[A,B,] | [A,C]2 [A,C]2 (CA,) [A,C]>[A,D] | [A,E]2 [A,E]2 (DC) A,>A, | %16
 [F,A,]2 [F,A,]>[F,C] [E,D]2 [E,D]2 | [A,,C]6 |] %18
V:4
 x2 | x8 | x8 | x4 A,2 x2 | E6 A,3/2 x/ | x4 A,2 x2 | x4 A,2 A,>A, | x8 | x6 || x2 | x8 | x8 | %12
 x4 A,2 x2 | E6 A,3/2 x/ | x4 A,2 x2 | x4 A,2 A,>A, | x8 | x6 |] %18

